public/assets/front/img/icons/location.svg

<svg 
 xmlns="http://www.w3.org/2000/svg"
 xmlns:xlink="http://www.w3.org/1999/xlink"
 width="50px" height="43px">
<path fill-rule="evenodd"  fill="rgb(251, 36, 117)"
 d="M48.677,43.006 C48.507,43.006 48.341,42.973 48.179,42.909 L36.446,38.175 L25.461,42.924 L25.388,42.942 C25.271,42.983 25.130,43.006 25.000,43.006 C24.872,43.006 24.743,42.984 24.607,42.939 L24.522,42.921 L24.481,42.900 L13.553,38.175 L1.821,42.910 C1.660,42.973 1.493,43.006 1.327,43.006 C1.062,43.006 0.805,42.925 0.582,42.772 C0.217,42.523 0.000,42.109 0.000,41.667 L0.000,6.257 C0.000,5.707 0.327,5.219 0.835,5.015 L13.185,0.031 L13.251,0.025 C13.343,0.005 13.381,-0.004 13.423,-0.008 L13.590,-0.016 C13.629,-0.016 13.689,-0.014 13.741,-0.008 L13.843,0.006 L13.879,0.023 L13.949,0.044 L13.995,0.044 L14.054,0.070 L14.081,0.075 L25.000,4.804 L35.969,0.059 L36.180,0.009 L36.299,-0.011 C36.330,-0.014 36.384,-0.016 36.432,-0.016 C36.485,-0.016 36.565,-0.016 36.655,0.006 L36.799,0.040 L36.913,0.076 L37.024,0.119 L49.235,5.871 C49.701,6.086 50.000,6.561 50.000,7.080 L50.000,41.667 C50.000,42.107 49.785,42.519 49.425,42.770 C49.193,42.925 48.938,43.006 48.677,43.006 ZM2.655,7.164 L2.655,39.688 L12.245,35.819 L12.245,3.294 L2.655,7.164 ZM37.755,35.819 L47.345,39.688 L47.345,7.931 L37.755,3.417 L37.755,35.819 ZM14.900,35.844 L23.673,39.636 L23.673,7.143 L14.900,3.346 L14.900,35.844 ZM26.327,7.139 L26.327,39.636 L35.100,35.844 L35.100,3.346 L26.327,7.139 Z"/>
</svg>

<?xml version="1.0" encoding="utf-8"?>
<!-- Generator: Adobe Illustrator 21.0.2, SVG Export Plug-In . SVG Version: 6.00 Build 0)  -->
<svg version="1.1" id="Layer_1" xmlns="http://www.w3.org/2000/svg" xmlns:xlink="http://www.w3.org/1999/xlink" x="0px" y="0px"
	 viewBox="0 0 50 43" style="enable-background:new 0 0 50 43;" xml:space="preserve">
<style type="text/css">
	.st0{fill:#25CE9E;}
</style>
<path class="st0" d="M48.7,43c-0.2,0-0.3,0-0.5-0.1l-11.7-4.7l-11,4.7l-0.1,0C25.3,43,25.1,43,25,43c-0.1,0-0.3,0-0.4-0.1l-0.1,0
	l0,0l-10.9-4.7L1.8,42.9C1.7,43,1.5,43,1.3,43c-0.3,0-0.5-0.1-0.7-0.2C0.2,42.5,0,42.1,0,41.7V6.3c0-0.6,0.3-1,0.8-1.2l12.4-5l0.1,0
	c0.1,0,0.1,0,0.2,0l0.2,0c0,0,0.1,0,0.2,0l0.1,0l0,0l0.1,0h0l0.1,0l0,0L25,4.8l11-4.7L36.2,0l0.1,0c0,0,0.1,0,0.1,0
	c0.1,0,0.1,0,0.2,0l0.1,0l0.1,0l0.1,0l12.2,5.8C49.7,6.1,50,6.6,50,7.1v34.6c0,0.4-0.2,0.9-0.6,1.1C49.2,42.9,48.9,43,48.7,43z
	 M2.7,7.2v32.5l9.6-3.9V3.3L2.7,7.2z M37.8,35.8l9.6,3.9V7.9l-9.6-4.5V35.8z M14.9,35.8l8.8,3.8V7.1l-8.8-3.8V35.8z M26.3,7.1v32.5
	l8.8-3.8V3.3L26.3,7.1z"/>
</svg>
